X: 100135
M: C|
L: 1/8
K: D
uA, !segno!|\
[1(3Bcd (3efg (3fed (3cBA :|[2 (3Bcd (3efg f<dd ||
uA |\
d<d (f>d) (g>e) f>d | (3Bcd (3efg (3fed (3cBA |\
d<d (f>d) (g>e) f>d | (3Bcd (3efg f<dd> ||
d<d (f>d) (g>e) f>d | (3Bcd (3efg (3fed (3cBA |\
(3fga (3gfe (3dcB (3AGF | (3GAB (3ABc (3dAG "_Segue Reel."(3FGE "^D.C."|]


